X:1
T:Title
%%score { ( 1 2 ) | ( 3 4 ) }
L:1/8
Q:1/4=100
M:4/4
K:F
V:1 treble nm="Midi_20"
V:2 treble 
V:3 bass 
V:4 bass 
V:1
"^Mary Lundie Duncan\n(1814-40)""^John Stainer\n(1840-1901)""^Evening prayer (87. 87)""^Jesus, tender Shepherd, hear me" c2 c2 c2 B2 | %1
 A2 A2 A2 G2 | F2 G2 A2 A2 | cB A2 G4 || c2 c2 c2 B2 | A2 A2 A2 G2 | F2 G2 A2 A2 | B2 E2 F4 |] %8
V:2
 A2 A2 A2 G2 | F2 F2 F2 E2 | F2 E2 F2 F2 | G2 F2 E4 || F4 G2 E2 | F6 E2 | F8 | E2 C2 C4 |] %8
V:3
"^1. Jesus, tender Shepherd, hear me;\nBless Thy little lamb tonight;\nThrough the darkness be Thou near me;\nWatch my sleep till morning light.\n\n2. All this day thy hand has led me,\nAnd I thank Thee for Thy care;\nThou hast clothed me, warmed and fed me,\nListen to my evening prayer." C8 | %1
 C8 | C8- | C8 || %4
"^3. Let my sins be all forgiven;\nBless the friends I love so well;\nTake me, when I die, to Heaven,\nHappy there with Thee to dwell." C2 A,2 G,4 | %5
 A,4 A,4 | A,2 =B,2 C2 F,2 | G,2 B,2 [F,A,]4 |] %8
V:4
 F,4 E,4 | F,2 A,2 C2 B,2 | A,2 G,2 F,2 F,2 | E,2 F,2 C2 B,2 || A,2 F,2 E,2 C,2 | %5
 F,2 D,2 ^C,2 A,,2 | D,4 C,4 | C,4 x4 |] %8

